src/images/svg/symbols/bnb-usd.svg

<svg width="32" height="32" viewBox="0 0 32 32" fill="none" xmlns="http://www.w3.org/2000/svg">
<path d="M2 11C2 6.02944 6.02944 2 11 2V2C15.9706 2 20 6.02944 20 11V11C20 15.9706 15.9706 20 11 20V20C6.02944 20 2 15.9706 2 11V11Z" fill="#F3BA2F"/>
<path d="M12.7613 10.2667C12.7177 10.2598 12.6938 10.2328 12.6709 10.207C12.6647 10.2001 12.6587 10.1932 12.6523 10.1869L12.4332 9.9682C11.9899 9.52591 11.5466 9.08353 11.1078 8.6369C11.0226 8.55026 10.9774 8.55036 10.8923 8.63698C10.6071 8.9273 10.3195 9.21533 10.032 9.50335C9.80419 9.73149 9.57634 9.95972 9.34973 10.189C9.27602 10.2636 9.23407 10.2728 9.15447 10.1901C8.88067 9.9053 8.59884 9.62812 8.31514 9.35313C8.2432 9.2834 8.24718 9.2404 8.31561 9.1722C9.19008 8.30095 10.0627 7.42786 10.9336 6.55304C10.989 6.49742 11.0189 6.50317 11.0706 6.55497C11.939 7.42643 12.8085 8.29676 13.68 9.1651C13.7501 9.23488 13.7636 9.27952 13.6846 9.35601C13.4875 9.54699 13.2939 9.74162 13.1004 9.93625C13.0154 10.0217 12.9304 10.1071 12.8452 10.1922C12.8263 10.2111 12.8059 10.2284 12.7866 10.2449C12.7779 10.2523 12.7694 10.2596 12.7613 10.2667Z" fill="white"/>
<path d="M13.7411 12.76C13.7282 12.7747 13.7142 12.7906 13.6993 12.8055L13.0964 13.4101C12.4197 14.0888 11.7427 14.7677 11.0675 15.4479C11.0107 15.5051 10.9827 15.4948 10.9324 15.4441C10.0577 14.5641 9.18194 13.6853 8.30403 12.8086C8.24128 12.746 8.24447 12.7091 8.30546 12.6496C8.60141 12.3609 8.89641 12.0712 9.1851 11.7753C9.25391 11.7048 9.28903 11.7414 9.32859 11.7827C9.33295 11.7873 9.33736 11.7919 9.34187 11.7964C9.4596 11.9143 9.57745 12.0321 9.69531 12.1498L9.69608 12.1506C10.0977 12.5519 10.4994 12.9533 10.896 13.3595C10.987 13.4527 11.0273 13.4368 11.1089 13.3537C11.3695 13.0882 11.6322 12.8249 11.8949 12.5615C12.1448 12.3109 12.3949 12.0602 12.643 11.8079C12.7279 11.7216 12.7762 11.7227 12.8598 11.8096C13.0517 12.0092 13.248 12.2043 13.4443 12.3995C13.5289 12.4835 13.6136 12.5677 13.6978 12.6521C13.7029 12.6572 13.7084 12.6619 13.7139 12.6668C13.7349 12.6849 13.7566 12.7038 13.7578 12.7412C13.7549 12.7445 13.752 12.7478 13.7489 12.7512C13.7464 12.7541 13.7438 12.757 13.7411 12.76Z" fill="white"/>
<path d="M10.9712 11.9998C10.9762 12.0037 10.981 12.0074 10.9851 12.0107C11.0242 12.0138 11.0431 11.9939 11.0615 11.9746L11.0669 11.969L11.0699 11.966C11.1488 11.8872 11.2276 11.8083 11.3064 11.7294L11.3069 11.7289C11.5254 11.5102 11.744 11.2915 11.9653 11.0756C12.0273 11.0152 12.0306 10.9817 11.968 10.9199C11.6618 10.618 11.3596 10.3119 11.0577 10.0057C11.0196 9.967 10.9945 9.95642 10.9515 10.0001C10.6411 10.3154 10.3299 10.6299 10.0156 10.9414C9.96467 10.9918 9.98242 11.0131 10.0239 11.0544C10.2334 11.2628 10.4415 11.4726 10.6497 11.6824C10.7436 11.7771 10.8375 11.8718 10.9316 11.9664C10.9443 11.9792 10.9588 11.9903 10.9712 11.9998Z" fill="white"/>
<path d="M14.4993 9.99343C14.5052 9.99885 14.5118 10.0046 14.5187 10.0108C14.5349 10.0251 14.5529 10.0411 14.5701 10.058C14.6546 10.1419 14.739 10.2258 14.8234 10.3098C15.0379 10.5231 15.2527 10.7367 15.4688 10.9483C15.506 10.9847 15.5132 10.9988 15.4725 11.0388C15.1628 11.3424 14.8553 11.6482 14.5494 11.9556C14.5031 12.0021 14.4759 12.012 14.4236 11.9587C14.1314 11.6606 13.8367 11.3648 13.5384 11.0728C13.4757 11.0115 13.476 10.978 13.5386 10.9169C13.7518 10.7088 13.9623 10.4979 14.1728 10.287C14.2539 10.2057 14.3352 10.1243 14.4165 10.0431C14.4206 10.039 14.4245 10.0346 14.4284 10.0301C14.4446 10.0114 14.4616 9.99177 14.4993 9.99343Z" fill="white"/>
<path d="M7.49221 11.9911C7.49621 11.9946 7.49989 11.9979 7.50307 12.0008C7.53293 12.0031 7.54637 11.9889 7.55933 11.9752C7.56141 11.973 7.56349 11.9708 7.56561 11.9687C7.64353 11.8914 7.72145 11.8142 7.79938 11.7369C8.03327 11.5051 8.26716 11.2733 8.5007 11.0411C8.53317 11.0088 8.53647 10.9817 8.49663 10.9428C8.19181 10.6454 7.88855 10.3463 7.58906 10.0435C7.53058 9.98441 7.49953 9.987 7.44251 10.0446C7.1399 10.3503 6.8335 10.6523 6.52635 10.9534C6.49269 10.9865 6.49018 11.0006 6.52519 11.035C6.75881 11.2645 6.99114 11.4954 7.22346 11.7263C7.30264 11.805 7.38181 11.8836 7.46104 11.9623C7.47163 11.9728 7.48281 11.9827 7.49221 11.9911Z" fill="white"/>
<path d="M12 21C12 16.0294 16.0294 12 21 12V12C25.9706 12 30 16.0294 30 21V21C30 25.9706 25.9706 30 21 30V30C16.0294 30 12 25.9706 12 21V21Z" fill="white"/>
<path fill-rule="evenodd" clip-rule="evenodd" d="M20.6193 12C18.886 12.0999 17.2854 12.6903 15.9524 13.6331H26.3383C25.0052 12.6903 23.4046 12.0999 21.6712 12H21.3943H20.6193ZM14.1924 15.2657C13.7798 15.7672 13.4222 16.3149 13.125 16.8987L23.9472 16.8988H29.1657C28.8684 16.3151 28.5111 15.7673 28.0981 15.2658L24.1011 15.2657H14.1924ZM12.0371 20.1809C12.0862 19.6202 12.1875 19.0747 12.3353 18.5483H29.6523C29.8002 19.0746 29.9014 19.6202 29.9507 20.1809H12.0371ZM12.0405 21.8143C12.0926 22.3753 12.1976 22.9208 12.3484 23.4469H29.6394C29.7904 22.9208 29.8952 22.3752 29.9473 21.8143H12.0405ZM14.0792 26.7129C13.6614 26.212 13.2987 25.6642 12.9969 25.08H24.3481L28.9908 25.08C28.6891 25.6643 28.3264 26.212 27.9086 26.7129H23.53L14.0792 26.7129ZM20.6133 29.969L20.6406 29.97L20.6679 29.971C20.7761 29.9749 20.8846 29.9775 20.9938 29.9775C22.9005 29.9775 24.6673 29.3734 26.1223 28.3463L23.2321 28.3462H15.8655C17.223 29.3046 18.8524 29.8945 20.6133 29.969Z" fill="#F44336"/>
<path d="M20.8077 12.0049C16.1988 12.0986 12.4424 15.6572 12.0381 20.1836H20.8078V12.0049H20.8077Z" fill="#283991"/>
<path d="M13.7997 17.0851L13.9367 17.5061H14.3806L14.0215 17.7664L14.1586 18.1877L13.7997 17.9273L13.4408 18.1877L13.5777 17.7664L13.2187 17.5061H13.6626L13.7997 17.0851Z" fill="#EFEFEF"/>
<path d="M13.7997 18.5725L13.9367 18.9938H14.3806L14.0215 19.2541L14.1586 19.6754L13.7997 19.4149L13.4408 19.6754L13.5777 19.2541L13.2187 18.9938H13.6626L13.7997 18.5725Z" fill="#EFEFEF"/>
<path d="M15.2905 14.8534L15.4275 15.2746H15.8713L15.5123 15.5351L15.6493 15.9561L15.2905 15.6959L14.9314 15.9561L15.0685 15.5351L14.7093 15.2746H15.1532L15.2905 14.8534Z" fill="#EFEFEF"/>
<path d="M15.2905 16.3411L15.4275 16.7623H15.8713L15.5123 17.0224L15.6493 17.4438L15.2905 17.1836L14.9314 17.4438L15.0685 17.0224L14.7093 16.7623H15.1532L15.2905 16.3411Z" fill="#EFEFEF"/>
<path d="M15.2905 17.8288L15.4275 18.2501H15.8713L15.5123 18.5101L15.6493 18.9314L15.2905 18.671L14.9314 18.9314L15.0685 18.5101L14.7093 18.2501H15.1532L15.2905 17.8288Z" fill="#EFEFEF"/>
<path d="M12.6678 18.9314L12.5307 18.5101L12.8897 18.2499H12.446L12.4361 18.2192C12.3873 18.3696 12.3433 18.5218 12.3027 18.6756L12.309 18.671L12.6678 18.9314Z" fill="#EFEFEF"/>
<path d="M13.4408 16.7001L13.7996 16.4396L14.1587 16.7001L14.0215 16.2788L14.3805 16.0183H13.9366L13.7995 15.5973L13.6625 16.0183H13.4989C13.4685 16.0642 13.4391 16.1104 13.4096 16.157L13.5777 16.2788L13.4408 16.7001Z" fill="#EFEFEF"/>
<path d="M15.2905 14.2082L15.6493 14.4684L15.5123 14.0474L15.8711 13.787H15.6148C15.3971 13.9494 15.1871 14.1213 14.9853 14.3026L14.9311 14.4684L15.2905 14.2082Z" fill="#EFEFEF"/>
<path d="M16.4223 13.7247L16.7813 13.4643L17.1401 13.7247L17.0031 13.3034L17.3619 13.0432H16.9182L16.8996 12.9865C16.7492 13.0632 16.6004 13.143 16.4549 13.2279L16.5592 13.3034L16.4223 13.7247Z" fill="#EFEFEF"/>
<path d="M16.7813 14.1097L16.9183 14.5306H17.3621L17.0031 14.7911L17.1401 15.2124L16.7813 14.9519L16.4222 15.2124L16.5593 14.7911L16.2002 14.5306H16.6441L16.7813 14.1097Z" fill="#EFEFEF"/>
<path d="M16.7813 15.5974L16.9183 16.0183H17.3621L17.0031 16.2788L17.1401 16.7001L16.7813 16.4396L16.4222 16.7001L16.5593 16.2788L16.2002 16.0183H16.6441L16.7813 15.5974Z" fill="#EFEFEF"/>
<path d="M16.7813 17.0851L16.9183 17.5061H17.3621L17.0031 17.7664L17.1401 18.1877L16.7813 17.9273L16.4222 18.1877L16.5593 17.7664L16.2002 17.5061H16.6441L16.7813 17.0851Z" fill="#EFEFEF"/>
<path d="M16.7813 18.5725L16.9183 18.9938H17.3621L17.0031 19.2541L17.1401 19.6754L16.7813 19.4149L16.4222 19.6754L16.5593 19.2541L16.2002 18.9938H16.6441L16.7813 18.5725Z" fill="#EFEFEF"/>
<path d="M18.2721 13.3658L18.4091 13.7869H18.8529L18.494 14.0474L18.6309 14.4684L18.2721 14.2082L17.9129 14.4684L18.0501 14.0474L17.691 13.7869H18.1349L18.2721 13.3658Z" fill="#EFEFEF"/>
<path d="M18.2721 14.8534L18.4091 15.2746H18.8529L18.494 15.5351L18.6309 15.9561L18.2721 15.6959L17.9129 15.9561L18.0501 15.5351L17.691 15.2746H18.1349L18.2721 14.8534Z" fill="#EFEFEF"/>
<path d="M18.2721 16.3411L18.4091 16.7623H18.8529L18.494 17.0224L18.6309 17.4438L18.2721 17.1836L17.9129 17.4438L18.0501 17.0224L17.691 16.7623H18.1349L18.2721 16.3411Z" fill="#EFEFEF"/>
<path d="M18.2721 17.8288L18.4091 18.2501H18.8529L18.494 18.5101L18.6309 18.9314L18.2721 18.671L17.9129 18.9314L18.0501 18.5101L17.691 18.2501H18.1349L18.2721 17.8288Z" fill="#EFEFEF"/>
<path d="M19.7629 12.6221L19.8999 13.0432H20.3437L19.9847 13.3034L20.1217 13.7247L19.7629 13.4642L19.4038 13.7247L19.5409 13.3034L19.1818 13.0432H19.6256L19.7629 12.6221Z" fill="#EFEFEF"/>
<path d="M19.7629 14.1097L19.8999 14.5306H20.3437L19.9847 14.7911L20.1217 15.2124L19.7629 14.9519L19.4038 15.2124L19.5409 14.7911L19.1818 14.5306H19.6256L19.7629 14.1097Z" fill="#EFEFEF"/>
<path d="M19.7629 15.5974L19.8999 16.0183H20.3437L19.9847 16.2788L20.1217 16.7001L19.7629 16.4396L19.4038 16.7001L19.5409 16.2788L19.1818 16.0183H19.6256L19.7629 15.5974Z" fill="#EFEFEF"/>
<path d="M19.7629 17.0851L19.8999 17.5061H20.3437L19.9847 17.7664L20.1217 18.1877L19.7629 17.9273L19.4038 18.1877L19.5409 17.7664L19.1818 17.5061H19.6256L19.7629 17.0851Z" fill="#EFEFEF"/>
<path d="M19.7629 18.5725L19.8999 18.9938H20.3437L19.9847 19.2541L20.1217 19.6754L19.7629 19.4149L19.4038 19.6754L19.5409 19.2541L19.1818 18.9938H19.6256L19.7629 18.5725Z" fill="#EFEFEF"/>
</svg>

<svg width="32" height="32" fill="none" xmlns="http://www.w3.org/2000/svg"><path d="M2 11a9 9 0 1 1 18 0 9 9 0 1 1-18 0Z" fill="#F3BA2F"/><path d="M12.761 10.267c-.043-.007-.067-.034-.09-.06l-.019-.02-.219-.219c-.443-.442-.886-.884-1.325-1.331-.085-.087-.13-.087-.216 0-.285.29-.572.578-.86.866-.228.228-.456.457-.682.686-.074.075-.116.084-.196.001a33.606 33.606 0 0 0-.839-.837c-.072-.07-.068-.113 0-.18.875-.872 1.748-1.745 2.619-2.62.055-.056.085-.05.137.002.868.871 1.738 1.742 2.609 2.61.07.07.084.115.005.191-.197.191-.391.386-.585.58l-.255.256c-.019.02-.04.036-.058.053a2.261 2.261 0 0 0-.026.022ZM13.741 12.76a.951.951 0 0 1-.042.046l-.603.604c-.676.679-1.353 1.358-2.028 2.038-.057.057-.085.047-.136-.004-.874-.88-1.75-1.759-2.628-2.635-.063-.063-.06-.1.001-.16.296-.288.591-.578.88-.874.069-.07.104-.034.144.008l.013.013.353.354h.001c.402.402.803.803 1.2 1.21.091.093.131.077.213-.006.26-.266.523-.53.786-.792.25-.251.5-.502.748-.754.085-.086.133-.085.217.002.192.2.388.394.584.59l.254.252.016.015c.02.018.043.037.044.074l-.01.01a.553.553 0 0 1-.007.009Z" fill="#fff"/><path d="m10.971 12 .014.01c.04.004.058-.016.077-.035l.005-.006.003-.003.236-.237c.22-.219.438-.438.66-.653.061-.06.065-.094.002-.156a91.235 91.235 0 0 1-.91-.914c-.038-.039-.063-.05-.107-.006-.31.315-.621.63-.935.941-.051.05-.034.072.008.113.21.209.418.419.626.628l.282.284c.012.013.027.024.04.034ZM14.5 9.993l.019.018.051.047.253.252c.215.213.43.427.646.638.037.037.044.05.004.09-.31.304-.618.61-.924.918-.046.046-.073.056-.125.003a60.604 60.604 0 0 0-.886-.886c-.062-.062-.062-.095 0-.156.214-.208.424-.42.635-.63a186.772 186.772 0 0 1 .255-.257c.017-.019.034-.038.071-.037ZM7.492 11.991a.714.714 0 0 1 .011.01c.03.002.043-.012.056-.026l.007-.006.233-.232.702-.696c.032-.032.035-.06-.004-.098a71.718 71.718 0 0 1-.908-.9c-.058-.059-.09-.056-.146.002-.303.305-.61.607-.917.908-.033.034-.036.048 0 .082l.697.691.238.236.031.03ZM12 21a9 9 0 1 1 18 0 9 9 0 1 1-18 0Z" fill="#fff"/><path fill-rule="evenodd" clip-rule="evenodd" d="M20.62 12c-1.734.1-3.335.69-4.668 1.633h10.386A8.956 8.956 0 0 0 21.671 12H20.62Zm-6.428 3.266a8.985 8.985 0 0 0-1.067 1.633h16.041a8.973 8.973 0 0 0-1.068-1.633H14.192Zm-2.155 4.915c.05-.56.15-1.106.298-1.633h17.317c.148.527.25 1.072.299 1.633H12.037Zm.003 1.633c.053.561.158 1.107.308 1.633H29.64a8.897 8.897 0 0 0 .308-1.633H12.041Zm2.04 4.899a8.99 8.99 0 0 1-1.083-1.633H28.99a8.981 8.981 0 0 1-1.082 1.633H14.08Zm6.533 3.256.028.001.027.001a8.86 8.86 0 0 0 5.454-1.625H15.866a8.859 8.859 0 0 0 4.747 1.623Z" fill="#F44336"/><path d="M20.808 12.005a8.991 8.991 0 0 0-8.77 8.179h8.77v-8.18Z" fill="#283991"/><path d="m13.8 17.085.137.421h.444l-.36.26.138.422-.36-.26-.358.26.137-.422-.36-.26h.445l.137-.42ZM13.8 18.573l.137.42h.444l-.36.261.138.421-.36-.26-.358.26.137-.42-.36-.261h.445l.137-.421ZM15.29 14.853l.138.422h.443l-.359.26.137.421-.358-.26-.36.26.138-.42-.36-.261h.444l.137-.422ZM15.29 16.341l.138.421h.443l-.359.26.137.422-.358-.26-.36.26.138-.422-.36-.26h.444l.137-.42ZM15.29 17.829l.138.421h.443l-.359.26.137.421-.358-.26-.36.26.138-.42-.36-.26h.444l.137-.422ZM12.668 18.931l-.137-.42.359-.261h-.444l-.01-.03c-.049.15-.093.302-.133.456l.006-.005.359.26ZM13.44 16.7l.36-.26.359.26-.138-.421.36-.26h-.444l-.137-.422-.138.421H13.5l-.09.139.169.122-.137.421ZM15.29 14.208l.36.26-.138-.42.36-.261h-.257a8.941 8.941 0 0 0-.63.516l-.054.165.36-.26ZM16.422 13.725l.36-.26.358.26-.137-.422.359-.26h-.444l-.018-.056c-.15.076-.3.156-.445.24l.104.076-.137.422ZM16.781 14.11l.137.42h.444l-.359.261.137.421-.359-.26-.359.26.137-.42-.359-.261h.444l.137-.421ZM16.781 15.597l.137.421h.444l-.359.26.137.422-.359-.26-.359.26.137-.421-.359-.26h.444l.137-.422ZM16.781 17.085l.137.421h.444l-.359.26.137.422-.359-.26-.359.26.137-.422-.359-.26h.444l.137-.42ZM16.781 18.573l.137.42h.444l-.359.261.137.421-.359-.26-.359.26.137-.42-.359-.261h.444l.137-.421ZM18.272 13.366l.137.42h.444l-.359.261.137.421-.359-.26-.36.26.138-.42-.359-.261h.444l.137-.421ZM18.272 14.853l.137.422h.444l-.359.26.137.421-.359-.26-.36.26.138-.42-.359-.261h.444l.137-.422ZM18.272 16.341l.137.421h.444l-.359.26.137.422-.359-.26-.36.26.138-.422-.359-.26h.444l.137-.42ZM18.272 17.829l.137.421h.444l-.359.26.137.421-.359-.26-.36.26.138-.42-.359-.26h.444l.137-.422ZM19.763 12.622l.137.421h.444l-.36.26.138.422-.36-.26-.358.26.137-.422-.36-.26h.445l.137-.42ZM19.763 14.11l.137.42h.444l-.36.261.138.421-.36-.26-.358.26.137-.42-.36-.261h.445l.137-.421ZM19.763 15.597l.137.421h.444l-.36.26.138.422-.36-.26-.358.26.137-.421-.36-.26h.445l.137-.422ZM19.763 17.085l.137.421h.444l-.36.26.138.422-.36-.26-.358.26.137-.422-.36-.26h.445l.137-.42ZM19.763 18.573l.137.42h.444l-.36.261.138.421-.36-.26-.358.26.137-.42-.36-.261h.445l.137-.421Z" fill="#EFEFEF"/></svg>
